!!!!SEGMENT: pl-kk--kk-i-6--025-003_sabino-ippolito--missa-brevis-patrem.krn
!!!cenid: 16xx:986
!!!COM: Sabino, Ippolito
!!!COM-rismID:
!!!CDT: ~1550-1593
!!!CNT: Italian
!!!OPR: Missa brevis
!!!OTL: Patrem
!!!OMV: 003
!!!PDT:
!!!AGN: Sacred; Mass
!!!SMS-siglum: PL-Kk
!!!SMS-shelfmark: Kk.I.6
!!!SMS-shelfwork: 025-003 M
!!!SMS-variant:
!!!SMS-altvar:
!!!NIFC-rismSourceID: 1001135985
!!!NIFC-islandoraID: pl-kk:1634
!!!URL-pdf-islandora: https://repozytorium.nifc.pl/islandora/object/pl-kk%3A1634/datastream/PDF/view
!!!URL-scan: https://polish.musicsources.pl/pl/lokalizacje/galeria/rekopisy/6133 @EN{Scan on Polish Music Herritage in Open Access Website} @PL{Skany w portalu Dziedzictwo Muzyki Polskiej w otwartym dostępie}
!!!ONB-nifc: UWAGA: C (skan 0023-0027, s. 42-51), T (skan 0126-0131, s. 56-66), B (skan 0237-0241, s. 56-65) Części Mszy: 1 Kyrie, 2. Et in terra, 3. Patrem, 4. Sanctus, 5. Agnus Dei
!!!AIN: 1 empty 1 tenor 1 vox
!!!key:
**kern	**text	**kern	**text	**kern	**text
*part3	*part3	*part2	*part2	*part1	*part1
*staff3	*staff3	*staff2	*staff2	*staff1	*staff1
*Iempty	*	*Itenor	*	*Ivox	*
*I"Baſsus.	*	*I"Tenor.	*	*I"Cantus.	*
*I'B	*	*I'T	*	*I'S	*
*clefF4	*	*clefC4	*	*clefC4	*
*k[b-]	*	*k[b-]	*	*k[b-]	*
*F:	*	*F:	*	*F:	*
*M2/1	*	*M2/1	*	*M2/1	*
*met(c|)	*	*met(c|)	*	*met(c|)	*
=1	=1	=1	=1	=1	=1
!LO:TX:t=P:problem=przed kluczem inicjał P	!	!	!	!	!
!	!	!LO:TX:t=P:problem=przed kluczem inicjał P	!	!	!
!	!	!	!	!LO:TX:t=P:global:problem=oddech jako rozdzielacz słów	!
!	!	!	!	!LO:TX:t=P:problem=przed kluczem inicjał P	!
1r	.	1G/	Pa-	1r	.
!	!	!	!	!LO:TX:t=P:problem=kreska pseudotaktowa	!
1C/	PA-	2G/	-trem	1E/	Pa-
.	.	2G/	O-	.	.
=2-	=2-	=2-	=2-	=2-	=2-
2FF/	-trem	2A/	-mni-	2F/	-trem
!LO:TX:t=P:problem=all\center&colon; global	!	!LO:TX:t=P:problem=4/center or right&colon; global	!	!LO:TX:t=P:problem=kreska pseudotaktowa	!
2F\	O-	4F/	-po-	2A/	O-
.	.	4G/	.	.	.
2F\	-mni-	4A/	.	2A/	-mni-
.	.	4B-\	.	.	.
!	!	!	!	!LO:TX:t=P:problem=kreska pseudotaktowa	!
2E\	-po-	1c\	.	2G/	-po-
=3-	=3-	=3-	=3-	=3-	=3-
1D\	-ten-	.	.	1F/	-ten-
!	!	!LO:TX:t=P:problem=all\center&colon; global	!	!	!
.	.	2B-\	-ten-	.	.
!	!	!	!	!LO:TX:t=P:problem=kreska pseudotaktowa	!
0C/	-tem	2c\	-tem	1G/	-tem
.	.	2G/	fa-	.	.
=4-	=4-	=4-	=4-	=4-	=4-
.	.	2G/	-cto-	2r	.
!	!	!	!	!LO:TX:t=P:problem=kreska pseudotaktowa	!
.	.	2G/	-rem	2G/	fa-
1C/	fa-	2.c\	Cae-	2G/	-cto-
!	!	!	!	!LO:TX:t=P:problem=kreska pseudotaktowa	!
.	.	.	.	2G/	-rem
*	*	*custos:A	*	*	*
.	.	4B-\	.	.	.
=5-	=5-	=5-	=5-	=5-	=5-
!	!	!LO:LB:g=original	!	!LO:TX:t=P:problem=all\center&colon; global	!
2C/	-cto-	2A/	.	2.c\	Cae-
*custos:F	*	*	*	*	*
2C/	-rem	2G/	-li	.	.
*	*	*	*	*custos:A	*
.	.	.	.	4B-\	.
!LO:LB:g=original	!	!	!	!LO:LB:g=original	!
2.F\	Cae-	2F/	et	2.A/	.
.	.	2.c\	ter-	.	.
!	!	!	!	!LO:TX:t=P:problem=4/center or right&colon; global	!
4E\	.	.	.	4G/	.
=6-	=6-	=6-	=6-	=6-	=6-
!	!	!	!	!LO:TX:t=P:problem=kreska pseudotaktowa	!
1D\	.	.	.	1F/	.
.	.	8B-\L	.	.	.
.	.	8A\J	.	.	.
.	.	2B-\	.	.	.
!	!	!	!	!LO:TX:t=P:global:problem=oddech jako rozdzielacz słów	!
2C/	-li	2c\	-ra	2G,</	-li
2C/	et	2c\	et	2G/	et
=7-	=7-	=7-	=7-	=7-	=7-
*lig	*	*lig	*	*	*
1FF/	ter-	1A\	ter-	2.F/	ter-
.	.	.	.	4E/	.
!	!	!	!	!LO:TX:t=P:problem=kreska pseudotaktowa	!
1GG/	.	1G/	.	1D/	.
*Xlig	*	*Xlig	*	*	*
=8-	=8-	=8-	=8-	=8-	=8-
2C/	-ra	2G/	-ra	2E/	-ra
2.FF/	Vi-	2.A/	Vi-	2.F/	Vi-
!LO:TX:t=P:problem=4/center or right&colon; global	!	!	!	!	!
4FF/	-si-	4A/	-ſi-	4F/	-si-
4BB-/	-bi-	4B-\	-bi-	4F/	-bi-
!	!	!	!	!LO:TX:t=P:problem=kreska pseudotaktowa	!
4BB-/	-li-	4B-\	-li-	4F/	-li-
=9-	=9-	=9-	=9-	=9-	=9-
2FF/	-um	2A/	-um	2F/	-um
1C/	O-	1G/	O-	1E/	O-
*	*	*custos:G	*	*	*
!	!	!	!	!LO:TX:t=P:problem=kreska pseudotaktowa	!
2GG/	-mni-	2G/	-mni-	2D/	-mni-
=10-	=10-	=10-	=10-	=10-	=10-
!	!	!LO:LB:g=original	!	!	!
2C/	-um	2G/	-um	2E/	-um
1FF/	et	1A\	et	1F/	et
*	*	*	*	*custos:F	*
!	!	!	!	!LO:TX:t=P:problem=kreska pseudotaktowa	!
2FF/	in-	2A/	in-	2F/	in-
=11-	=11-	=11-	=11-	=11-	=11-
!	!	!	!	!LO:LB:g=original	!
2BB-/	-ui-	1B-\	-ui-	2F/	-ui-
*custos:C	*	*	*	*	*
!	!	!	!	!LO:TX:t=P:problem=kreska pseudotaktowa	!
2BB-/	-si-	.	.	2F/	-ſi-
!LO:LB:g=original	!	!	!	!	!
2.C/	-bi-	2A/	-ſi-	2.E/	-bi-
.	.	1G/	-bi-	.	.
4BB-/	.	.	.	4D/	.
=12-	=12-	=12-	=12-	=12-	=12-
2AA/	.	.	.	2C/	.
!	!	!LO:TX:t=P:♯below:problem	!	!	!
2AA/	-li-	2F#X/	-li-	2C/	-li-
!	!	!	!	!LO:TX:t=P:problem=kreska pseudotaktowa	!
1GG/	-um	1G/	-um	1D/	-um
=13-	=13-	=13-	=13-	=13-	=13-
!	!	!LO:TX:t=P:♯below:problem	!	!	!
!	!	!LO:N:acc=#	!	!	!
2.GG/	Et	2.Bn\	Et	2.G/	Et
!	!	!	!	!LO:TX:t=P:problem=kreska pseudotaktowa	!
4GG/	in	4B\	in	4G/	in
4C/	v-	4c\	v-	4G/	u-
4C/	-num	4c\	-num	4G/	-num
4FF/	Do-	4c\	Do-	4A/	D(o-
4FF/	-mi-	4c\	-mi-	4A/	-mi)-
=14-	=14-	=14-	=14-	=14-	=14-
2C/	-n(um)	2c\	-num	2G/	-num
1BB-/	Je-	1d\	Je-	1B-\	Je-
!	!	!	!	!LO:TX:t=P:problem=kreska pseudotaktowa	!
2FF/	-ſum	1c\	-ſ(um)	2A/	-ſum
=15-	=15-	=15-	=15-	=15-	=15-
1GG/	Chri-	.	.	1G/	Chriſ-
*	*	*custos:c	*	*	*
!	!	!LO:N:acc=#	!	!	!
!	!	!LO:TX:t=P:♯below:problem	!	!	!
.	.	2Bn\	Chri-	.	.
!	!	!LO:PB:g=original	!	!	!
1C/	-ſtum	2c\	-ſtum	2G,</	-tum
*	*	*	*	*custos:F	*
!	!	!	!	!LO:TX:t=P:problem=kreska pseudotaktowa	!
.	.	2G/	fi-	2C/	fi-
=16-	=16-	=16-	=16-	=16-	=16-
!	!	!	!	!LO:LB:g=original	!
1rD	.	4A/	-li-	4F/	-li-
.	.	4G/	-um	4E/	-um
!	!	!	!	!LO:TX:t=P:problem=kreska pseudotaktowa	!
.	.	2A/	De-	2F/	De-
2rBB	.	2G/	-i	2C/	-i
1BB-/	V-	1B-y\	V-	1F/	V-
=17-	=17-	=17-	=17-	=17-	=17-
!	!	!	!	!LO:TX:t=P:problem=kreska pseudotaktowa	!
2FF/	-ni-	2A/	-ni-	2F/	-ni-
2C/	-ge-	2G/	-ge-	2E/	-ge-
*custos:C	*	*	*	*	*
!	!	!LO:TX:t=P:♯below:problem	!	!LO:TX:t=P:problem=kreska pseudotaktowa	!
2D/	-ni-	2F#X/	-ni-	2D/	-ni-
=18-	=18-	=18-	=18-	=18-	=18-
!LO:LB:g=original	!	!	!	!	!
2C/	-tum	2G/	-tum	2E/	-tum
1FF/	et	1A\	et	1F/	et
!	!	!	!	!LO:TX:t=P:problem=kreska pseudotaktowa	!
2AA/	ex	2A/	ex	2E/	ex
=19-	=19-	=19-	=19-	=19-	=19-
!	!	!LO:N:acc=#	!	!	!
!	!	!LO:TX:t=P:♯below:problem	!	!	!
2GG/	Pa-	2Bn\	Pa-	2G/	Pa-
!	!	!	!	!LO:TX:t=P:problem=kreska pseudotaktowa	!
2C/	-tre	2c\	-tre	2G/	-tre
1FF/	na-	1c\	na-	1A\	Na-
=20-	=20-	=20-	=20-	=20-	=20-
2C/	-tum	2c\	-tum	2G/	-tum
2.C/	an-	2.c\	an-	2.G/	an-
4C/	-te	4c\	-te	4G/	-te
4BB-/	O-	4d\	O-	4B-\	O-
*	*	*custos:B	*	*custos:G	*
!	!	!	!	!LO:TX:t=P:problem=kreska pseudotaktowa	!
4C/	-mni-	4c\	-mni-	4G/	-mni-
=21-	=21-	=21-	=21-	=21-	=21-
!	!	!LO:LB:g=original	!	!LO:LB:g=original	!
2GG/	-a	2B-y\	-a	2G/	-a
1BB-/	Sae-	1B-\	Sae-	1F/	Sae-
!	!	!	!	!LO:TX:t=P:problem=kreska pseudotaktowa	!
2BB-/	-cu-	2B-\	-cu-	2F/	-cu-
=22-	=22-	=22-	=22-	=22-	=22-
1FF/	-la	1A\	-la	1F/,<	-la
2F\	De-	2c\	De-	2A/	De-
4F\	-um	4c\	-um	4A/	-um
!	!	!	!	!LO:TX:t=P:problem=kreska pseudotaktowa	!
4F\	de	4c\	de	4A/	de
=23-	=23-	=23-	=23-	=23-	=23-
2BB-/	De-	2d\	De-	2B-\	De-
4F\	-o	4c\	-o	4A/	-o
*custos:FF	*	*	*	*	*
!	!	!	!	!LO:TX:t=P:problem=kreska pseudotaktowa	!
4FF/	lu-	4A/	lu-	4F/	lu-
!LO:LB:g=original	!	!	!	!	!
4FF/	-men	4A/	-men	4F/	-men
4FF/	de	4A/	de	4F/	de
4BB-/	lu-	4B-\	lu-	4F/	lu-
!	!	!	!	!LO:TX:t=P:problem=kreska pseudotaktowa	!
4BB-/	-mi-	4B-\	-mi-	4F/	-mi-
=24-	=24-	=24-	=24-	=24-	=24-
2FF/	-ne	2A/	-ne	2F/	-ne
1C/	De-	1c\	De-	1G/	De-
!	!	!	!	!LO:TX:t=P:problem=kreska pseudotaktowa	!
2C/	-um	1c\	-um	2G/	-um
=25-	=25-	=25-	=25-	=25-	=25-
1D\	Ve-	.	.	1F/	Ve-
.	.	2B-\	Ve-	.	.
2C/	-rum	2c\	-rum	2G/	-rum
*	*	*	*	*custos:F	*
!	!	!	!	!LO:TX:t=P:problem=kreska pseudotaktowa	!
2AA/	de	2c\	de	2A/	de
=26-	=26-	=26-	=26-	=26-	=26-
!	!	!	!	!LO:LB:g=original	!
2BB-/	De-	2B-\	De-	2F/	De-
!	!	!LO:LB:g=original	!	!	!
2C/	-o	2G/	-o	2E/	-o
1GG/	ve-	1G/	Ve-	1D/	Ve-
=27-	=27-	=27-	=27-	=27-	=27-
!	!	!	!	!LO:TX:t=P:problem=kreska pseudotaktowa	!
1C/	-ro	1G/	-ro	1E/	-ro
2.FF/	ge-	2.A/	ge-	2.F/	ge-
!	!	!	!	!LO:TX:t=P:problem=kreska pseudotaktowa	!
4FF/	-ni-	4A/	-ni-	4F/	-ni-
=28-	=28-	=28-	=28-	=28-	=28-
4BB-/	-tum	4B-\	-tum	4F/	-tum
4BB-/	non	4B-\	non	4F/	non
!	!	!	!	!LO:TX:t=P:problem=kreska pseudotaktowa	!
2D/	fa-	2A/	fa-	2F/	fa-
*custos:F	*	*	*	*	*
2C/	-ctum	2c\	-ct(um)	2G/	-ct(um)
!LO:LB:g=original	!	!	!	!	!
1F\	Con-	1c\	Con-	1A/	Con-
=29-	=29-	=29-	=29-	=29-	=29-
!	!	!	!	!LO:TX:t=P:problem=kreska pseudotaktowa	!
2BB-/	-ſub-	2d\	-sub-	2B-\	-ſub-
2C/	-stan-	2.c\	-stan-	2G/	-stan-
2C/	-ti-	.	.	2G/	-ti-
.	.	4B-\	-ti-	.	.
=30-	=30-	=30-	=30-	=30-	=30-
!	!	!	!	!LO:TX:t=P:♯below:problem	!
2D/	-a-	2A/	-a-	2F#X/	-a-
2E-X\	-lem	2G/	-lem	1G/	-lem
1D\	Pa-	1A\	Pa-	.	.
!	!	!	!	!LO:TX:t=P:problem=kreska pseudotaktowa	!
!	!	!	!	!LO:TX:t=P:♯below:problem	!
.	.	.	.	2F#X/	Pa-
=31-	=31-	=31-	=31-	=31-	=31-
*	*	*	*	*custos:G	*
2GG/	-tri	2G/	-tri	2G/	-tri
!	!	!LO:TX:t=P:problem=# na wysokosci A	!	!	!
!	!	!LO:N:acc=#	!	!LO:PB:g=original	!
2.GG/	per	2.Bn\	per	2.G/	per
4GG/	quem	4B\	quem	4G/	quem
4C/	O-	4c\	O-	4G/	O-
*	*	*custos:c	*	*	*
!	!	!	!	!LO:TX:t=P:problem=kreska pseudotaktowa	!
4C/	-mni-	4c\	-mni-	4G/	-mni-
=32-	=32-	=32-	=32-	=32-	=32-
!	!	!LO:LB:g=original	!	!	!
2FF/	-a	2c\	-a	2A/	-a
1BB-/	fa-	1B-y\	fa-	1Fny/	fa-
!	!	!	!	!LO:TX:t=P:problem=kreska pseudotaktowa	!
2BB-/	-cta	2B-\	-cta	2F/	-cta
=33-	=33-	=33-	=33-	=33-	=33-
2FF/	ſunt	2A/	ſunt	2F/	ſunt
1C/	Qui	1G/	Qui	1E/	Qui
!	!	!	!	!LO:TX:t=P:problem=kreska pseudotaktowa	!
2C/	pro-	2c\	pro-	2G/	pro-
=34-	=34-	=34-	=34-	=34-	=34-
4F\	-pter	4c\	-pter	4A/	-pter
4Eny\	nos	4c\	nos	4G/	nos
!LO:LB:g=original	!	!	!	!	!
4F\	ho-	4c\	h(o-	4A/	ho-
!	!	!	!	!LO:TX:t=P:problem=kreska pseudotaktowa	!
4D/	-mi-	4B-\	-mi)-	4F/	-mi-
2C/	-nes	2c\	-nes	2G/	-nes
1C/	et	1c\	et	1G/	et
=35-	=35-	=35-	=35-	=35-	=35-
!	!	!	!	!LO:TX:t=P:problem=kreska pseudotaktowa	!
2C/	pro-	2c\	pro-	2G/	pro-
*	*	*	*	*custos:B	*
2BB-/	-pter	2d\	-pter	2B-\	-pter
!	!	!	!	!LO:TX:t=P:problem=kreska pseudotaktowa	!
!	!	!	!	!LO:LB:g=original	!
2BB-/	No-	2d\	No-	2B-\	no-
=36-	=36-	=36-	=36-	=36-	=36-
2F\	-ſtram	2.c\	-ſtram	2A/	-ſtram
2C/	Sa-	.	.	1G/	Sa-
.	.	4B-\	Sa-	.	.
1D\	-lu-	1A\	-lu-	.	.
!	!	!	!	!LO:TX:t=P:♯below:problem	!
.	.	.	.	2F#X/	-lu-
=37-	=37-	=37-	=37-	=37-	=37-
!	!	!	!	!LO:TX:t=P:problem=kreska pseudotaktowa	!
0GG/	-tem	2G/	-t(em)	1G/	-tem
*	*	*custos:G	*	*	*
.	.	2D/	de-	.	.
!	!	!LO:LB:g=original	!	!	!
.	.	2.G/	-scen-	2r	.
.	.	.	.	2D/	de-
.	.	4Fny/	.	.	.
=38-	=38-	=38-	=38-	=38-	=38-
2rGG	.	2E/	.	2.G/	-scen-
2GG/	de-	2D/	-dit	.	.
!	!	!	!	!LO:TX:t=P:problem=kreska pseudotaktowa	!
.	.	.	.	4Fny/	.
2.C/	-ſcen-	2C/	de	2.E/	.
.	.	2.G/	Cae-	.	.
4BB-/	.	.	.	4D/	.
=39-	=39-	=39-	=39-	=39-	=39-
1AA/	.	.	.	1C/	.
.	.	8F/L	.	.	.
.	.	8E/J	.	.	.
.	.	2F/	.	.	.
2GG/	-dit	2G/	-lis	2D/	-dit
2FF/	de	2c\	de	1F/	de
=40-	=40-	=40-	=40-	=40-	=40-
*custos:FF	*	*	*	*	*
1C/	Cae-	1c\	Cae-	.	.
!	!	!	!	!LO:TX:t=P:problem=kreska pseudotaktowa	!
.	.	.	.	2E/	Cae-
!LO:PB:g=original	!	!	!	!	!
2FF/	-lis	2c,<\	-lis	2F/	-lis
!	!	!	!	!LO:TX:t=P:problem=kreska pseudotaktowa	!
2F\	Et	2c\	Et	2A/	Et
=41-	=41-	=41-	=41-	=41-	=41-
2F\	in-	2F/	in-	2A/	in-
*	*	*	*	*custos:F	*
2E\	-car-	2G/	-car-	2G/	-car-
2.D/	-na-	2.A/	-na-	2.F/	-Na-
!	!	!	!	!LO:TX:t=P:problem=kreska pseudotaktowa	!
4D/	-tus	4B-\	-tus	4F/	-tus
=42-	=42-	=42-	=42-	=42-	=42-
!	!	!	!	!LO:LB:g=original	!
2C/	eſt	2c\	eſt	2G/	eſt
*	*	*custos:B	*	*	*
2FF/	de	2A/	de	2F/	de
!	!	!LO:LB:g=original	!	!	!
1.BB-/	Spi-	1.B-\	Spi-	1.F/	Spi-
=43-	=43-	=43-	=43-	=43-	=43-
2BB-/	-ri-	2B-\	-ri-	2F/	-ri-
1C/	-tu	2A/	-tu	1E/	-tu
.	.	2.G/	San-	.	.
=44-	=44-	=44-	=44-	=44-	=44-
!	!	!	!	!LO:TX:t=P:problem=kreska pseudotaktowa	!
1AA/	San-	.	.	1C/	San-
.	.	8F/L	.	.	.
.	.	8E/J	.	.	.
.	.	2F/	.	.	.
2GG/	-cto	2G/	-cto	2D/	-cto
!	!	!LO:TX:t=P:♯below:problem=na wysokosci G	!	!	!
!	!	!LO:N:acc=#	!	!	!
1GG/	ex-	1Bn\	ex	1G/	ex
=45-	=45-	=45-	=45-	=45-	=45-
!	!	!	!	!LO:TX:t=P:problem=kreska pseudotaktowa	!
2GG/	-Ma-	2Bny\	Ma-	2G/	Ma-
2C/	-ri-	2c\	-ri-	2G/	-ri-
!	!	!	!	!LO:TX:t=P:problem=kreska pseudotaktowa	!
2C/	-a	2c\	-a	2G/	-a
=46-	=46-	=46-	=46-	=46-	=46-
1.FF/	Vir-	1.c\	Vir-	1.A\	Vir-
2FF/	-gi-	2c\	-gi-	2A/	-gi-
=47-	=47-	=47-	=47-	=47-	=47-
!LO:LB:g=original	!	!	!	!LO:TX:t=P:problem=kreska pseudotaktowa	!
1C/	-ne	1c\	-ne	1G/	-ne
0C/	et	0c\	et	0G/	et
=48-	=48-	=48-	=48-	=48-	=48-
1.BB-/	ho-	1.d\	ho-	1.B-\	ho-
=49-	=49-	=49-	=49-	=49-	=49-
!	!	!	!	!LO:TX:t=P:problem=kreska pseudotaktowa	!
2FF/	-mo	1c\	-mo	2A/	-mo
1.GG/	fa-	.	.	1.G/	fa-
.	.	4B-y\	fa-	.	.
*	*	*custos:B	*	*	*
.	.	4A/	.	.	.
=50-	=50-	=50-	=50-	=50-	=50-
!	!	!LO:TX:t=P:♯below:problem	!	!	!
!	!	!LO:N:acc=#	!	!	!
!	!	!LO:PB:g=original	!	!	!
.	.	4Bn\	.	.	.
.	.	2c\	.	.	.
2GG/	-ctus	.	.	2G/	-ctus
!	!	!LO:TX:t=P:♯below:problem	!	!	!
!	!	!LO:N:acc=#	!	!	!
.	.	4Bn\	-ctus	.	.
!LO:N:vis=0	!	!	!	!	!
1C/	eſt.	1c\	eſt	1G/	eſt.
=51-	=51-	=51-	=51-	=51-	=51-
*M2/1	*	*M2/1	*	*M2/1	*
*met(c|)	*	*met(c|)	*	*met(c|)	*
!LO:TX:t=P:problem=przed kluczem inicjał C	!	!	!	!	!
!LO:LB:g=original	!	!LO:TX:t=P:problem=przed kluczem inicjał C	!	!LO:TX:t=P:problem=przed kluczem inicjał C	!
1r	.	1.G/	Cru-	0rA	.
1.C/	Cru-	.	.	.	.
.	.	2G/	-ci-	.	.
=52-	=52-	=52-	=52-	=52-	=52-
.	.	1c\	-fi-	1r	.
2C/	-ci-	.	.	.	.
1F\	-fi-	0A\	-xus	2r	.
.	.	.	.	1F/	Cru-
=53-	=53-	=53-	=53-	=53-	=53-
1D\	-xus	.	.	.	.
!	!	!	!	!LO:TX:t=P:problem=kreska pseudotaktowa	!
.	.	.	.	2F/	-ci-
!	!	!LO:N:acc=#	!	!	!
!	!	!LO:TX:t=P:problem=♯above	!	!	!
2rBB	.	1.Bn\	e-	2.G/	-fi-
1GG/	e-	.	.	.	.
!	!	!	!	!LO:TX:t=P:problem=kreska pseudotaktowa	!
.	.	.	.	4G/	-xus
=54-	=54-	=54-	=54-	=54-	=54-
.	.	.	.	2G/	e-
*	*	*	*	*custos:G	*
2GG/	-ti-	2Bny\	-ti-	2G/	-ti-
!	!	!	!	!LO:LB:g=original	!
2C/	-am	2c\	-am	2G/	-am
!	!	!	!	!LO:TX:t=P:problem=kreska pseudotaktowa	!
2FF/	pro	2c\	pro	2A/	pro
=55-	=55-	=55-	=55-	=55-	=55-
1C/	No-	1c\	No-	1G/	no-
2FF/	-bis	2A/	-bis	2F/	-bis
*	*	*custos:B	*	*	*
!	!	!	!	!LO:TX:t=P:problem=kreska pseudotaktowa	!
2FF/	ſub	2A/	ſub	2F/	ſub
=56-	=56-	=56-	=56-	=56-	=56-
2.BB-/	Pon-	2.B-y\	pon-	2.F/	Pon-
*custos:C	*	*	*	*	*
4GG/	-ti-	4B-\	-ti-	4G/	-ti-
!LO:LB:g=original	!	!	!	!	!
2C/	-o	2c\	-o	2G/	-o
!	!	!	!	!LO:TX:t=P:problem=kreska pseudotaktowa	!
2C/	Pi-	1c\	Pi-	2G/	Pi-
=57-	=57-	=57-	=57-	=57-	=57-
1D\	-la-	.	.	1F/	-la-
.	.	2B-\	-la-	.	.
2C/	-to	2c\	-to	2G/	-to
1BB-/	paſ-	1F/	Paſ-	1B-\	Paſ-
=58-	=58-	=58-	=58-	=58-	=58-
!	!	!	!	!LO:TX:t=P:problem=kreska pseudotaktowa	!
2FF/	-sus	2F/	-sus	2A/	-sus
2.BB-/	et	2.F/	et	2.B-\	et
4BB-/	ſe-	4F/	ſe-	4B-\	ſe-
=59-	=59-	=59-	=59-	=59-	=59-
2C/	-pul-	2E/	-pul-	2G/	-pul-
!	!	!	!	!LO:TX:t=P:problem=kreska pseudotaktowa	!
2D/	-tus	2D/	-tus	2F/	-tus
*	*	*	*	*custos:A	*
1C/	eſt	1E/	eſt	1G/	eſt
=60-	=60-	=60-	=60-	=60-	=60-
!	!	!	!	!LO:LB:g=original	!
2FF/	Et	2F/	Et	2A/	et
4FF/	re-	4F/	re-	4A/	re-
!	!	!	!	!LO:TX:t=P:problem=kreska pseudotaktowa	!
4FF/	-ſur-	4F/	-ſur-	4A/	-ſur-
2BB-/	-re-	2F/	-re-	2B-\	-re-
!	!	!	!	!LO:TX:t=P:problem=kreska pseudotaktowa	!
2D/	-xit	2F/	-xit	2A/	-xit
=61-	=61-	=61-	=61-	=61-	=61-
2.C/	ter-	2.G/	ter-	2.c\	ter-
*custos:B	*	*custos:B	*	*	*
4C/	-ti-	4G/	-ti-	4c\	-ti-
!LO:LB:g=original	!	!LO:LB:g=original	!	!	!
2BB-/	-a	2B-\	-a	2d\	-a
!	!	!	!	!LO:TX:t=P:problem=kreska pseudotaktowa	!
2C/	di-	2G/	die	2c\	di-
=62-	=62-	=62-	=62-	=62-	=62-
!	!	!	!	!LO:N:acc=#	!
!	!	!	!	!LO:TX:t=P:problem=♯above	!
2GG/	-e	2G/	ſe-	2Bn\	-e
1C/	ſe-	1G/	-cun-	1c\	ſe-
!	!	!	!	!LO:TX:t=P:problem=kreska pseudotaktowa	!
2FF/	-cun-	2A/	-d(um)	2c\	-cun-
=63-	=63-	=63-	=63-	=63-	=63-
2BB-/	-d(um)	2G/	ſcri-	2.B-y\	-dum
2BB-/	ſcri-	1F/	-ptu-	.	.
.	.	.	.	4A/	ſcri-
!	!	!	!	!LO:TX:t=P:problem=kreska pseudotaktowa	!
1C/	-ptu-	.	.	1G/	-ptu-
.	.	2E/	-ras	.	.
=64-	=64-	=64-	=64-	=64-	=64-
*	*	*	*	*custos:G	*
2FF/	-ras	2F/	et	1A\	-ras
2F\	Et	2A/	a-	.	.
!	!	!	!	!LO:PB:g=original	!
2.F\	a-	2.A/	-ſcen-	0r	.
4E\	-ſcen-	4G/	.	.	.
=65-	=65-	=65-	=65-	=65-	=65-
4F\	-dit	4A/	-dit	.	.
4A\	in	4A/	in	.	.
!	!	!LO:N:acc=#	!	!	!
!	!	!LO:TX:t=P:♯below:problem	!	!	!
2G\	Cae-	2Bn\	Cae-	.	.
2C/	-lum	00c\	-lum	2r	.
2.C/	ſe-	.	.	2.G/	ſe-
=66-	=66-	=66-	=66-	=66-	=66-
4C/	-det	.	.	4G/	-det
*custos:B	*	*	*	*	*
!	!	!	!	!LO:TX:t=P:problem=kreska pseudotaktowa	!
2C/	ad	.	.	2G/	ad
!LO:LB:g=original	!	!	!	!	!
2.F\	dex-	.	.	2.A/	dex-
4G\	-te-	.	.	4G/	-te-
=67-	=67-	=67-	=67-	=67-	=67-
2A\	-ram	.	.	2F/	-r(am)
!	!	!	!	!LO:TX:t=P:problem=kreska pseudotaktowa	!
2G\	Pa-	.	.	2E/	Pa-
1F\	-tris	2r	.	2F/	-tris
!	!	!	!	!LO:TX:t=P:problem=kreska pseudotaktowa	!
.	.	2F/	Et	2A/	Et
=68-	=68-	=68-	=68-	=68-	=68-
0r	.	2.F/	i-	2.A/	i-
*	*	*custos:F	*	*	*
!	!	!	!	!LO:TX:t=P:problem=kreska pseudotaktowa	!
.	.	4E/	-te-	4G/	-te-
!	!	!LO:LB:g=original	!	!	!
.	.	4F/	-rum	4A/	-rum
.	.	4A/	Ven-	4c\	Ven-
!	!	!	!	!LO:N:acc=#	!
!	!	!	!	!LO:TX:t=P:problem=♯above	!
.	.	4G/	-tu-	4Bn\	-tu-
!	!	!	!	!LO:TX:t=P:problem=kreska pseudotaktowa	!
.	.	4G/	-rus	4B\	-rus
=69-	=69-	=69-	=69-	=69-	=69-
2r	.	2C/	eſt	2c\	eſt
!	!	!	!	!LO:TX:t=P:problem=kreska pseudotaktowa	!
2C/	Cum	2c\	cum	2G/	cum
2.BB-/	glo-	2.d\	glo-	2.B-y\	glo-
*	*	*	*	*custos:A	*
4BB-/	-ri-	4d\	-ri-	4B-\	-ri-
=70-	=70-	=70-	=70-	=70-	=70-
!	!	!	!	!LO:LB:g=original	!
2F\	-a	2c\	-a	2A/	-a
1C/	iu-	1c\	iu-	1G/	iu-
2C/	-di-	2c\	-di-	1G/	-di-
=71-	=71-	=71-	=71-	=71-	=71-
1D\	-ca-	1A\	-ca-	.	.
!	!	!	!	!LO:TX:t=P:problem=kreska pseudotaktowa	!
!	!	!	!	!LO:N:acc=#	!
!	!	!	!	!LO:TX:t=P:♯below:problem	!
.	.	.	.	2F#X/	-ca-
!	!	!LO:N:acc=#	!	!	!
!	!	!LO:TX:t=P:problem=♯above	!	!	!
2GG/	-re	2Bn\	-re	2G/	-re
!	!	!	!	!LO:TX:t=P:problem=kreska pseudotaktowa	!
2GG/	Vi-	2B\	Vi-	2G/	Vi-
=72-	=72-	=72-	=72-	=72-	=72-
2C/	-uos	2c\	-uos	2G/	-uos
!	!	!	!	!LO:TX:t=P:problem=kreska pseudotaktowa	!
2FF/	et	2c\	et	2A/	et
!LO:PB:g=original	!	!	!	!	!
2BB-/	Mor-	2d\	mor-	2B-\	mor-
!	!	!	!	!LO:TX:t=P:problem=kreska pseudotaktowa	!
2C/	-tu-	2c\	-tu-	2G/	-tu-
=73-	=73-	=73-	=73-	=73-	=73-
2FF/	-os	2c\	-os	2A/	-os
4FF/	Cu-	4A/	Cu-	4Fny/	cu-
*	*	*custos:B	*	*	*
!	!	!	!	!LO:TX:t=P:problem=kreska pseudotaktowa	!
4FF/	-ius	4A/	-ius	4F/	-ius
!	!	!LO:LB:g=original	!	!	!
2BB-/	re-	2B-y\	re-	2F/	re-
!	!	!	!	!LO:TX:t=P:problem=kreska pseudotaktowa	!
2D/	-gni	2A/	-gni	2F/	-gni
=74-	=74-	=74-	=74-	=74-	=74-
2C/	non	2c\	non	2G/	non
1BB-/	e-	1d\	e-	1B-\	e-
!	!	!	!	!LO:TX:t=P:problem=kreska pseudotaktowa	!
2C/	-rit	1c\	-rit	2G/	-rit
=75-	=75-	=75-	=75-	=75-	=75-
*	*	*	*	*custos:G	*
1GG/	fi-	.	.	1G/	fi-
!	!	!LO:N:acc=#	!	!	!
!	!	!LO:TX:t=P:problem=♯above	!	!	!
.	.	2Bn\	fi-	.	.
!	!	!	!	!LO:LB:g=original	!
2C/	-nis	2c\	-nis	2G/	-nis
2.C/	Et	2.G/	Et	2.c\	Et
=76-	=76-	=76-	=76-	=76-	=76-
4C/	in	4G/	in	4c\	in
4C/	Spi-	4G/	Spi-	4c\	ſpi-
!	!	!	!	!LO:TX:t=P:problem=kreska pseudotaktowa	!
4C/	-ri-	4G/	-ri-	4c\	-ri-
2FF/	-tum	2A/	-tum	2c\	-tum
1BB-/	San-	1B-y\	San-	1d\	San-
=77-	=77-	=77-	=77-	=77-	=77-
*custos:C	*	*	*	*	*
!	!	!	!	!LO:TX:t=P:problem=kreska pseudotaktowa	!
2BB-/	-ctum	2B-\	-ctum	2d\	-ct(um)
!LO:LB:g=original	!	!	!	!	!
2.C/	D(o-	2.G/	D(o-	2.c\	D(o-
4C/	-mi)-	4G/	-mi)-	4c\	-mi)-
=78-	=78-	=78-	=78-	=78-	=78-
!	!	!	!	!LO:N:acc=#	!
!	!	!	!	!LO:TX:t=P:♯below:problem	!
2GG/	-num	2G/	-num	2Bn\	-num
1C/	et	1G/	Et	1c\	et
!	!	!	!	!LO:TX:t=P:problem=kreska pseudotaktowa	!
2FF/	Vi-	2A/	Vi-	2c\	Vi-
=79-	=79-	=79-	=79-	=79-	=79-
!	!	!LO:LB:g=original	!	!	!
2BB-/	-ui-	2B-\	-ui-	2d\	-ui-
2C/	-fi-	2G/	-fi-	1c\	-fi-
1D\	-can-	1F/	-can-	.	.
!	!	!	!	!LO:TX:t=P:problem=kreska pseudotaktowa	!
.	.	.	.	2B-y\	-can-
=80-	=80-	=80-	=80-	=80-	=80-
2C/	-tem	2G/	-tem	2c\	-tem
1C/	qui	1G/	qui	1c\	Qui
*	*	*	*	*custos:d	*
2C/	ex	2G/	ex	2c\	ex
=81-	=81-	=81-	=81-	=81-	=81-
!	!	!	!	!LO:LB:g=original	!
4BB-/	Pa-	4B-\	Pa-	4d\	Pa-
4BB-/	-tre	4B-\	-tre	4d\	-tre
4C/	fi-	4G/	fi-	4c\	fi-
!	!	!	!	!LO:TX:t=P:problem=kreska pseudotaktowa	!
4C/	-li-	4G/	-li-	4c\	-li-
2GG/	-o-	2G/	-o-	2B-\	-o-
1BB-/	que	1F/	-que	1B-\	-que
=82-	=82-	=82-	=82-	=82-	=82-
!	!	!	!	!LO:TX:t=P:problem=kreska pseudotaktowa	!
2FF/	pro-	2F/	pro-	2A/	pro-
1GG/	-ce-	1D/	-ce-	1G/	-ce-
=83-	=83-	=83-	=83-	=83-	=83-
2C/	-dit	2C/	-dit	1G/	-dit
*custos:D	*	*	*	*	*
2C/	Qui	2c\	qui	.	.
!LO:LB:g=original	!	!	!	!	!
2D/	cum	2B-\	cum	1rA	.
2E\	Pa-	2G/	Pa-	.	.
=84-	=84-	=84-	=84-	=84-	=84-
*	*	*custos:A	*	*	*
1F\	-tre	1A\	-tre	2rG	.
!	!	!	!	!LO:TX:t=P:problem=kreska pseudotaktowa	!
.	.	.	.	2F/	et
!	!	!LO:PB:g=original	!	!	!
1r	.	1r	.	2B-\	fi-
!	!	!	!	!LO:TX:t=P:problem=kreska pseudotaktowa	!
.	.	.	.	2c\	-li-
=85-	=85-	=85-	=85-	=85-	=85-
2r	.	2r	.	2F/	-o
1F\	Si-	1A\	Si-	1c\	ſi-
2F\	-mul	2A/	-mul	2c\	-mul
=86-	=86-	=86-	=86-	=86-	=86-
2BB-/	a-	2B-\	a-	2d\	a-
!	!	!	!	!LO:TX:t=P:problem=kreska pseudotaktowa	!
2BB-/	-do-	2B-\	-do-	2d\	-do-
*	*	*	*	*custos:B	*
1C/	-ra-	1G/	-ra-	1c\	-ra-
=87-	=87-	=87-	=87-	=87-	=87-
!	!	!	!	!LO:N:acc=#	!
!	!	!	!	!LO:TX:t=P:♯below:problem	!
2GG/	-tur	2G/	-tur	2Bn\	-tur
!	!	!	!	!LO:TX:t=P:problem=kreska pseudotaktowa	!
2GG/	et	2G/	et	2B\	et
2.C/	Con-	2.G/	Con-	2.c\	Con-
!	!	!	!	!LO:TX:t=P:problem=kreska pseudotaktowa	!
4BB-/	-glo-	4G/	-glo-	4c\	-glo-
=88-	=88-	=88-	=88-	=88-	=88-
4AA/	-ri-	4A/	-ri-	4c\	-ri-
4AA/	-fi-	4A/	-fi-	4c\	-fi-
!	!	!	!	!LO:TX:t=P:problem=kreska pseudotaktowa	!
2FF/	-ca-	2A/	-ca-	2c\	-ca-
2C/	-tur	2G/	-tur	2c\	-tur
1BB-/	Qui	1B-\	Qui	1F/	Qui
=89-	=89-	=89-	=89-	=89-	=89-
!	!	!	!	!LO:TX:t=P:problem=kreska pseudotaktowa	!
2FF/	lo-	2A/	lo-	2F/	lo-
2.BB-/	-cu-	2.B-\	-cu-	2.F/	-cu-
4BB-/	-tus	4B-\	-tus	4F/	-tus
=90-	=90-	=90-	=90-	=90-	=90-
*custos:F	*	*	*	*	*
2FF/	eſt	2A/	eſt	2F/	eſt
!LO:LB:g=original	!	!	!	!	!
1F\	per	1c\	per	1A\	per
*	*	*custos:B	*	*	*
!	!	!	!	!LO:TX:t=P:problem=kreska pseudotaktowa	!
2C/	Pro-	2c\	Pro-	2G/	Pro-
=91-	=91-	=91-	=91-	=91-	=91-
!	!	!LO:LB:g=original	!	!	!
2.D/	-phe-	4B-\	-phe-	2.F/	-phe-
.	.	4A/	.	.	.
.	.	2.A/	.	.	.
4D/	.	.	.	4E/	.
!	!	!	!	!LO:TX:t=P:problem=kreska pseudotaktowa	!
1BB-/	.	.	.	1D/	.
.	.	8G/L	.	.	.
.	.	8F/J	.	.	.
.	.	2G/	.	.	.
=92-	=92-	=92-	=92-	=92-	=92-
2AA/	-tas	2A,</	-tas	2E/	-tas
*	*	*	*	*custos:F	*
2AA/	et	2A/	et	2E/	Et
!	!	!	!	!LO:LB:g=original	!
4D/	V-	4A/	V-	4F/	v-
4D/	-n(am)	4B-\	-nam	4F/	-nam
!	!	!	!	!LO:TX:t=P:problem=kreska pseudotaktowa	!
2C/	San-	2c\	San-	2G/	San-
=93-	=93-	=93-	=93-	=93-	=93-
2FF/	-ct(am)	2c\	-ct(am)	2A/	-ct(am)
!	!	!	!	!LO:TX:t=P:problem=kreska pseudotaktowa	!
2F\	Ca-	2c\	Ca-	2A/	Ca-
2BB-/	-tho-	2d\	-tho-	2B-y\	-tho-
!	!	!	!	!LO:TX:t=P:problem=kreska pseudotaktowa	!
2C/	-li-	2c\	-li-	2G/	-li-
=94-	=94-	=94-	=94-	=94-	=94-
4FF,</	-cam	4c\	-c(am)	4A,</	-cam
4FF/	et	4A/	et	4F/	et
4FF/	A-	4A/	A-	4F/	A-
!	!	!	!	!LO:TX:t=P:problem=kreska pseudotaktowa	!
4FF/	-po-	4A/	-po-	4F/	-po-
4BB-/	-ſto-	4B-\	-ſto-	4F/	-ſto-
4BB-/	-li-	4B-\	-li-	4F/	-li-
4FF/	-cam	4A/	-cam	4F/	-cam
*custos:C	*	*custos:G	*	*	*
!	!	!	!	!LO:TX:t=P:problem=kreska pseudotaktowa	!
4FF/	Ec-	4A/	Ec-	4F/	Ec-
=95-	=95-	=95-	=95-	=95-	=95-
!LO:LB:g=original	!	!LO:LB:g=original	!	!	!
2C/	-cle-	2G/	-cle-	2E/	-cle-
!	!	!	!	!LO:TX:t=P:problem=kreska pseudotaktowa	!
2D/	-ſi-	2F/	-ſi-	2D/	-si-
2C/	-am	2G/	-am	2E,</	-am
*	*	*	*	*custos:B	*
!	!	!	!	!LO:TX:t=P:problem=kreska pseudotaktowa	!
2C/	Con-	2c\	Con-	2G/	Con-
=96-	=96-	=96-	=96-	=96-	=96-
!	!	!	!	!LO:PB:g=original	!
1.BB-/	-fi-	1.d\	-fi-	1.B-\	-fi-
!	!	!	!	!LO:TX:t=P:problem=kreska pseudotaktowa	!
2BB-/	-te-	2d\	-te-	2B-\	-te-
=97-	=97-	=97-	=97-	=97-	=97-
2C/	-or	2c\	-or	1G/	-or
2C/	V-	2c\	V-	.	.
!	!	!LO:TX:t=P:♯below:problem	!	!	!
!	!	!LO:N:acc=#	!	!	!
2G\	-num	2Bn\	-num	00r	.
2A\	Bap-	1c\	Bap-	.	.
=98-	=98-	=98-	=98-	=98-	=98-
1G\	-ti-	.	.	.	.
!	!	!LO:TX:t=P:♯below:problem	!	!	!
!	!	!LO:N:acc=#	!	!	!
.	.	2Bn\	-ti-	.	.
2C/	-ſma	2c\	-ſma	.	.
2.F\	in	2.A/	in	.	.
=99-	=99-	=99-	=99-	=99-	=99-
4F\	re-	4A/	re-	.	.
4E\	-miſ-	4A/	-miſ-	.	.
4E\	-si-	4G/	-si-	.	.
*custos:C	*	*	*	*	*
1F\	-o-	1A\	-o-	1rA	.
=100-	=100-	=100-	=100-	=100-	=100-
!LO:LB:g=original	!	!	!	!	!
2C/	-nem	2G/	-nem	2rG	.
1C/	pec-	1c\	pec-	1G/	pec-
!	!	!	!	!LO:TX:t=P:problem=kreska pseudotaktowa	!
2AA/	-ca-	1c\	-ca-	2A/	-ca-
=101-	=101-	=101-	=101-	=101-	=101-
*	*	*custos:B	*	*	*
1D\	-to-	.	.	1F/	-to-
!	!	!LO:TX:t=P:♯below:problem	!	!	!
!	!	!LO:N:acc=#	!	!	!
!	!	!LO:LB:g=original	!	!	!
.	.	2Bn\	-to-	.	.
1C/	-rum	2c\	-rum	2G/	-rum
.	.	2G/	et	2c\	et
=102-	=102-	=102-	=102-	=102-	=102-
1rD	.	2A/	ex-	2F/	ex-
!	!	!LO:TX:t=P:♯below:problem	!	!	!
!	!	!LO:N:acc=#	!	!LO:TX:t=P:problem=kreska pseudotaktowa	!
.	.	2Bn\	-pe-	2G/	-pe-
2rBB	.	2c\	-cto	2C/	-cto
2.C/	re-	2.c\	re-	2.G/	re-
=103-	=103-	=103-	=103-	=103-	=103-
4C/	-ſur-	4c\	-ſur-	4G/	-ſur-
!	!	!LO:TX:t=P:♯below:problem	!	!	!
!	!	!LO:N:acc=#	!	!	!
4GG/	-re-	4Bn\	-re-	4G/	-re-
!	!	!	!	!LO:TX:t=P:problem=kreska pseudotaktowa	!
4C/	-cti-	4c\	-cti-	4G/	-cti-
*	*	*	*	*custos:A	*
1FF/	-o-	1c\	-o-	1A\	-o-
=104-	=104-	=104-	=104-	=104-	=104-
!	!	!	!	!LO:LB:g=original	!
2FF/	-nem	2c\	-nem	2A/	-nem
1BB-/	mor-	1d\	mor-	1B-\	mor-
!	!	!	!	!LO:TX:t=P:problem=kreska pseudotaktowa	!
2FF/	-tu-	1c\	-tu-	2A/	-tu-
=105-	=105-	=105-	=105-	=105-	=105-
!	!	!	!	!LO:TX:t=P:problem=kreska pseudotaktowa	!
1GG/	-o-	.	.	1G/	-o-
!	!	!LO:TX:t=P:♯below:problem	!	!	!
!	!	!LO:N:acc=#	!	!	!
.	.	2Bn\	-o-	.	.
2C/	-r(um)	2c\	-rum	2G/	-rum
*custos:C	*	*	*	*	*
!	!	!	!	!LO:TX:t=P:problem=kreska pseudotaktowa	!
2FF/	et	2A/	et	2F/	et
=106-	=106-	=106-	=106-	=106-	=106-
!LO:PB:g=original	!	!	!	!	!
1BB-/	Vi-	1B-y\	Vi-	1F/	Vi-
*	*	*custos:c	*	*	*
2FF/	-tam	2A/	-tam	2F/	-tam
!	!	!LO:LB:g=original	!	!	!
2FF/	Ven-	2c\	Ven-	2A/	Ven-
=107-	=107-	=107-	=107-	=107-	=107-
!	!	!	!	!LO:TX:t=P:problem=kreska pseudotaktowa	!
1C/	-tu-	1c\	-tu-	1G/	-tu-
2FF/	-ri	2A/	-ri	2F/	-ri
2.BB-/	Sae-	2.B-\	Sae-	2.F/	Sae-
=108-	=108-	=108-	=108-	=108-	=108-
4BB-/	-cu-	4B-\	-cu-	4F/	-cu-
!	!	!	!	!LO:TX:t=P:problem=kreska pseudotaktowa	!
2C/	-li	2G/	-li	2E/	-li
1GG/	A-	1G/	A-	1D/	A-
=109-	=109-	=109-	=109-	=109-	=109-
2C/	-men	2G/	-men	2C/	-men
2.FF/	Sae-	2.A/	Sae-	2.F/	Sae-
4FF/	-cu-	4A/	-cu-	4F/	-cu-
!	!	!	!	!LO:TX:t=P:problem=kreska pseudotaktowa	!
2C/	-li	2G/	-li	2E/	-li
=110-	=110-	=110-	=110-	=110-	=110-
!	!	!	!	!LO:LB:g=original	!
0FF/	A-	2.A/	A-	2.F/	A-
.	.	4G/	.	4G/	.
.	.	1.F/	.	1A\	.
=111-	=111-	=111-	=111-	=111-	=111-
0C/	-men.	.	.	0G/	-men.
.	.	4E/	.	.	.
.	.	4D/	.	.	.
!	!	!LO:N:vis=0	!	!	!
.	.	1E/	-men.	.	.
==	==	==	==	==	==
*-	*-	*-	*-	*-	*-
!!!RDF**kern: > = above
!!!RDF**kern: < = below
!!!system-decoration: [(s1,s2,s3)]
!!!EED: Andrzej Borzym
!!!EEV: 2021-03-22
!!!ENC: Andrzej Borzym
!!!END: 2021-03-07
